X:1
T:A Light in the Window
T:A Light in the Window
T:William Batchelder Bradbury, 1864
T:Edward Weldon Dunbar, 1858
T:Public Domain Courtesy of the Cyber Hymnal™
T:Public Domain Courtesy of the Cyber Hymnal™
C:William Batchelder Bradbury, 1864
Z:Public Domain
Z:Courtesy of the Cyber Hymnal™
%%score 1 2 ( 3 4 )
L:1/8
M:6/4
K:Ab
V:1 treble 
V:2 treble 
V:3 bass 
V:4 bass 
V:1
 EE | A2 A2 A2 B2 c2 B2 | A6 FF z2 FF | E2 A2 c2 B2 A2 B2 | c6- c4 c2 | c2 c2 c2 c4 cc | %6
w: 1.~There’s a|light in the win- dow for|thee, bro- ther, There’s a|light in the win- dow for|thee; * A|dear one has moved to the|
w: 2.~There’s a|crown, and a robe, and a|palm, bro- ther, When from|toil and from care you are|free; * The|Sav- ior has gone to pre-|
w: 3.~O ~|watch, and be faith- ful, and|pray, bro- ther, All your|jour- ney o’er life’s trou- bled|sea, * Tho’~af-|flic- tions as- sail you, and|
w: 4.~Th- en|on, per- se- ver- ing- ly|on, bro- ther, Till from|con- flict and suf- fer- ing|free; * Bright|an- gels now beck- on you|
 c2 B2 c2 !fermata!d4 !fermata!dd | c2 B2 A2 B2 !fermata!c3 B | A6- A4 ||"^Refrain" [Ge]2 | %10
w: man- sions a- bove, There’s a|light in the win- dow for|thee. *||
w: pare you a home, With a|light in the win- dow for|thee. *|A|
w: storms beat se- vere, There’s a|light in the win- dow for|thee. *||
w: o- ver the stream, There’s a|light in the win- dow for|thee. *||
 [Ge]2 [GB]2 [GB]2 [GB]2 [Ge]2 [Bd]2 | [Ac]6- [Ac]4 [Ae][Ae] | %12
w: ||
w: man- sion in Hea- ven we|see, * And a|
w: ||
w: ||
 [Ge]2 [GB]2 [GB]2 [GB]2 [ce]2 [Bd]2 | [Ac]6- [Ac]4 [Ec]2 | [Ec]2 [Ec]2 [Ec]2 [Ec]2 [DB]2 [EA]2 | %15
w: |||
w: light in the win- dow for|thee. * A|man- sion in Hea- ven we|
w: |||
w: |||
 [DF]6- [DF]4 [FA][DF] | [CE]2 [EA]2 [Ac]2 [GB]2 !fermata![Ec]3 [DB] | [CA]6- [CA]4 |] %18
w: |||
w: see, * And a|light in the win- dow for|thee. *|
w: |||
w: |||
V:2
 z2 | [CEA]6 [B,DG]6 | [CA]6 [DFA]6 | [CEA]6 [EGB]6 | [EAc]6- [EAc]4 c2 | [Ec]6 [=EGc]6 | %6
 [FAc]6 !fermata![FAd]4 !fermata![EGd]2 | [EAc]2 [DGB]2 [CA]2 [DB]2 [Ec]3 [DB] | [CA]6- [CA]4 || %9
 x2 | x12 | x12 | x12 | x12 | x12 | x12 | x12 | x10 |] %18
V:3
 z2 | [A,,E,]6 [E,,E,]6 | [F,,F,]6 [D,,D,]6 | [E,,E,]6 [E,,E,]6 | [A,,E,]6- [A,,E,]4 z2 | %5
 A,6 [G,B,]6 | [F,A,]6 !fermata![D,A,]4 !fermata!E,2 | E,6 !fermata![E,,E,]6 | %8
 [A,,A,]6- [A,,A,]4 || [E,B,]2 | [E,B,]2 [E,B,]2 [E,B,]2 [E,E]2 [E,E]2 [E,E]2 | %11
 [A,E]6- [A,E]4 [A,C][A,C] | [E,B,]2 [E,B,]2 [E,B,]2 [E,E]2 [E,E]2 [E,E]2 | [A,E]6- [A,E]4 A,2 | %14
 A,2 A,2 A,2 [A,,A,]2 [B,,G,]2 [C,A,]2 | [D,A,]6- [D,A,]4 [D,A,][D,A,] | %16
 [E,A,]2 [E,C]2 [E,E]2 [E,B,]2 !fermata![E,G,]3 [E,G,] | [A,,A,]6- [A,,A,]4 |] %18
V:4
 x2 | x12 | x12 | x12 | x12 | x12 | x12 | x12 | x10 || x2 | x12 | x12 | x12 | x10 A,2 | %14
 A,2 A,2 A,2 x6 | x12 | x12 | x10 |] %18

